X:1
T:Title
%%score ( 1 2 3 ) { 4 | ( 5 6 ) }
L:1/8
M:4/4
K:D
V:1 treble nm="Grand Piano, Unnamed-000"
V:2 treble 
V:3 treble 
V:4 bass nm="Choir Pad, Unnamed-001"
V:5 bass 
V:6 bass 
V:1
 [DA]2 [FA]2 [FA]2 [GA]2- | [GA]2 A-[EA] [EB]4 | [EB]2 [FA]6 | z8 | z4 G4 | z8 | F4 z4 | z4 A4 | %8
w: By~John~Bacchus~Dykes * * *||||||||
 [GA]2 [FA]6 | z4 z2 A2- | A2 z2 F4 | z8 | z8 |] %13
w: |||||
V:2
 x8 | z2 .F2 z4 | x8 | [Dd]2 [Dd]2 [DB]2 [DE]2- | [DE]2 [DF]2 D2 z2 | G2 [DF]4 [B,D]2 | %6
 C2 D2 [EF]2 [DF]2- | [DF]2 [DF]2 E2 F2 | x8 | [Dd]2 [Dc]2 [DB]2 A,2 | B,2 [CG]2 D2 z2 | E2 D6- | %12
 D2 z2 z4 |] %13
V:3
 x8 | x8 | x8 | x8 | z4 z2 C2- | C2 z2 z4 | x8 | x8 | x8 | x8 | z4 z2 C2- | C2 z2 z4 | x8 |] %13
V:4
 F,2 A,2 D2 E2- | E2[K:treble] DC B,4 | C2 D6 | A,2 A,2 B,2 B,2- | B,2 A,2 B,2 A,2 | G,2 A,4 B,2 | %6
 B,4 ^A,2 B,2- | B,2[K:treble] D2 D4 | C2 D4 C2 | B,2 C2 D2 D2- | D2[K:bass] G,2 A,4 | z2 F,6- | %12
 F,2 z2 z4 |] %13
V:5
 D,2 D,2 D,2 C,2- | C,2 D,2 G,4 | G,2 D,6 | F,2 F,2 G,2 G,2- | G,2 F,2 E,4 | E,2 D,4 G,2 | %6
 F,4 F,,2 B,,2- | B,,2 B,2 A,4 | [A,,A,]2 D,6 | z2 A,2 G,2 F,2- | F,2 E,2 D,2 z2 | G,2 D,6- | %12
 D,2 z2 z4 |] %13
V:6
 x8 | x8 | x8 | x8 | x8 | x8 | x8 | x8 | x8 | x8 | z4 z2 A,,2- | A,,2 z2 z4 | x8 |] %13

